X:1
T: The Ranting Rake
C:
R:Jig
Q:180
K:G
M:6/8
L:1/16
|:BA|G2A2G2 G4g2|d2B2d2 d2B2d2|e2g2e2 d2B2d2|A2B2A2 A2B2A2|
G2A2G2 G4g2|d2B2d2 d2B2d2|e2g2e2 d2B2d2|1G2A2G2 G4BA:|2G2A2G2 G4GB|
d6e6|d2e2d2 d2B2G2|c2d2c2 B2d2B2|A2G2A2 B2G2E2|
d6B6|A2G2A2 B2g2e2|d2B2d2 g2d2B2|1G2A2G2 G4GB:|2G2A2G2 G4||
